!!!OTL: Graf und Nonne (Die Nonne)
!!!OTL-incipit:Es welken alle Blaetter, ja Blaetter,
!!!ARE: Europa, Mitteleuropa, Deutschland (BRD), Hessen, Fulda, Neuhof
!!!YOR: 8, S. 81
!!    1934 aufgezeichnet
!!!SCT: Q0155Z
!!!TXL: @@DE
!!!YEM: Copyright 1995, estate of Helmut Schaffrath.
**kern	**text
*ICvox	*
*M6/8	*
*k[f#]	*
*G:	*
{8d	Es
=1	=1
4g	wel-
8d	-ken
(8BL	al-
8d)	.
8bJ	-le
=2	=2
8bL	Blät-
8a	-ter,
8dJ	ja
8eL	Blät-
8dJ}	-ter,
{8d	sie
=3	=3
(8dL	fal-
8f#)	.
8aJ	-len
(8eeL	al-
8dd)	.
8ccJ	-le
=4	=4
4.b	ab;
8r	.
8r}	.
{16gL	denn
16bJ	mein
=5	=5
4dd	Schatʒ
8dd	hat
(8ddL	mich
8cc)	.
8bJ	ver-
=6	=6
8bL	-las-
8a	-sen,
8dJ	ver-
8eL	-las-
8dJ}	-sen,
{8d	das
=7	=7
(8dL	kran-
8f#)	.
8aJ	-ket
(8eeL	mich
8dd)	.
8ccJ	so
=8	=8
4.b	sehr.
8r	.
8r}	.
{16gL	denn
16bJ	mein
=9	=9
4dd	Schatʒ
8dd	hat
(8ddL	mich
8cc)	.
8bJ	ver-
=10	=10
8bL	-las-
8a	-sen,
8dJ	ver-
8eL	-las-
8dJ}	-sen,
{8d	das
=11	=11
(8dL	kran-
8f#)	.
8aJ	-ket
(8eeL	mich
8dd)	.
8ccJ	so
=12	=12
4.b	sehr.
8r	.
8r}	.
==	==
!!!AGN: Ballade, Standesunterschied, vergebliche Werbung, Liebe, Klage, Tod
!! Anhaengsel an der ersten, dritten und fuenften Zeile.
!!!ONB: ESAC (Essen Associative Code) Database: BALLADE
!!!AMT: compound duple
!!!AIN: vox
!!!EED: Helmut Schaffrath
!!!EEV: 1.0
!!@@COMMENT:"Aufgeʒeichnet von Willy Horas-Dortborn
!!in der Gegend von Neuhof Fulda, 1934 (DVA = A 142 456)"
!!@@END:
!!!source: Deutsche Volkslieder mit ihren Melodien. Herausgegeben vom Deutschen Volksliedarchiv. Achter Teil. Freiburg/Breisgau 1988.
!!!page: 81
!!!ENC: Anna Maria Matuszewska
!!!EEV: 2025/03/10
*-	*-
